!!!!SEGMENT: pl-wtm--r-730-3-m_moniuszko-stanislaw--galop.krn
!!!cenid: 18xx:1680
!!!COM: Moniuszko, Stanisław
!!!COM-rismid: pe30008351
!!!CDT: 1819/05/05-1872/06/04
!!!CNT: Polish
!!!OTL: Galop
!!!PDT:
!!!AGN: Secular; Galop
!!!SMS-siglum: PL-Wtm
!!!SMS-shelfmark: R 730/3/M
!!!SMS-shelfwork: W
!!!SMS-variant:
!!!SMS-altvar:
!!!NIFC-rismid: 1001099725
!!!URL-scan: http://repozytorium.nifc.pl/skany/pl-wtm-nut--r730m-1-43
!!!ONB-nifc: Skan 0010. No. 752
**kern	**kern	**dynam
*part2	*part1	*part1
*staff2	*staff1	*
*Iforte	*Iforte	*
*I"[Fortepian]	*I"[Fortepian]	*
*I'Pf	*I'pf	*
*clefF4	*clefG2	*
*k[b-]	*k[b-]	*
*F:	*F:	*
*M2/4	*M2/4	*
*>A,A,B	*	*
=1	=1	=1
*>A	*	*
8c\L 8C\	8ccc\L 8gg\ 8ee\ 8cc\	f
16c\L	16cc\L	.
16c\JJ	16cc\JJ	.
8c\L	8ccc\L 8aa\ 8ff\ 8cc\	.
16c\L 16A\	16cc\L	.
16c\JJ 16A\	16cc\JJ	.
=2	=2	=2
8c\ 8G\ 8C\	8ccc\ 8gg\ 8ee\ 8cc\	.
8r	16g#X/LL 16c/	p
.	16g#/JJ 16c/	.
4r	4g#/ 4c/	.
=3||	=3||	=3||
8F\L	8a/L 8f'/	.
8c\	8ff/ 8a'/	.
8C\	8b-/ 8g'/	.
8c\J	8gg/J 8b-'/	.
=4	=4	=4
8F\L	8bn\L 8g#X'\	.
8d\	8gg\ 8b'\	.
8F\	8cc\ 8a'\	.
8c\J	8aa\J 8cc'\	.
=5	=5	=5
8BB-\L	16bb-\LL 16dd\ 16b-\	.
.	16bb-\J 16dd\ 16b-\	.
8G\	8bb-\J 8dd\ 8b-\	.
8C\	8dd\L 8b-\ 8g\	.
8G\J	8ee\J 8cc\	.
=6	=6	=6
8F\L	16gg\LL	.
.	16ff\	.
8c\J 8A\	16aa\	.
.	16ff\JJ	.
8FF/	8cc\	.
8r	16cc/LL 16a/	.
.	16b-/JJ 16g/	.
=7	=7	=7
!	!	!LO:DY:t=piu forte
8F\L	8a/L 8f/	f
8c\	8ff/ 8a/	.
8C\	8b-/ 8g/	.
8c\J	8gg/J 8b-/	.
!!LO:LB;g=original
=8	=8	=8
8F\L	8bn\L 8g#X\	.
8d\	8gg\ 8b\	.
8F\	8cc\ 8a\	.
8c\J	8aa\J 8cc\	.
=9	=9	=9
8BB-/L 8BBB-/	16bb-\LL 16dd\ 16b-\	.
.	16bb-\J 16dd\ 16b-\	.
8F/ 8BB-/	8bb-\J 8dd\ 8b-\	.
8C/ 8CC/	8dd\L 8b-\	.
8G/J 8C/	8ee\J 8b-\	.
=10	=10	=10
8F/L 8FF/	8ee\L 8a\	.
8C/J 8CC/	8aa\J 8cc\	.
4F/ 4FF/	4ff\ 4a\	.
=11!|:	=11!|:	=11!|:
*	*ped	*
!LO:TX:t=P:problem:mixed beam	!LO:TX:b:t=pedal:	!
8FF#X/L	8aa\L	p
8c\ 8A\ 8D\	16gg#X\L	.
.	16aa\JJ	.
8c\ 8A\ 8D\	16bb-\LL	.
.	16aa\	.
8c\J 8A\ 8D\	16ddd\	.
.	16ccc\JJ	.
=12	=12	=12
!LO:TX:t=P:problem:mixed beam	!	!
8GG/L	16bb-\LL	.
.	16ccc\	.
8B-\ 8G\ 8D\	16aa\	.
.	(16bb-\JJ	.
8B-\ 8G\ 8D\	8gg\L	.
8B-\J 8G\ 8D\	8ggg\J)	.
=13	=13	=13
!LO:TX:t=P:problem:mixed beam	!	!
8EE/L	8gg\L	.
8B-\ 8G\ 8C\	16ff#X\L	.
.	16gg\JJ	.
8B-\ 8G\ 8C\	16aa\LL	.
.	16gg\	.
8B-\J 8G\ 8C\	16ccc\	.
.	16bb-\JJ	.
=14	=14	=14
!LO:TX:t=P:problem:mixed beam	!	!
8FF/L	16aa\LL	.
.	16bb-\	.
8A\ 8F\ 8C\	16gg\	.
.	(16aa\JJ	.
8A\ 8F\ 8C\	8ff\L	.
8A\J 8F\ 8C\	8fff\J)	.
=15	=15	=15
!LO:TX:t=P:problem:mixed beam	!	!
8CC#X/L	8ee\L	f
8G\ 8E\ 8AA\	16ff\L	.
.	16ee\JJ	.
8G\ 8E\ 8AA\	16dd#X\LL	.
.	16ee\	.
8G\J 8E\ 8AA\	16aa\	.
.	16gg\JJ	.
=16	=16	=16
8DD/L	8ff\L	.
8F/ 8D/ 8AA/	16ee\L	.
.	16ee-X\JJ	.
8BBBn/	8dd\L	.
8F/J 8D/ 8GG/	8ddd\J	.
=17	=17	=17
8CC/L	8ccc\L	.
8E/ 8C/ 8AA/	16aa\L	.
.	16ff\JJ	.
8CC/	8bb-\L	.
8E/J 8C/ 8BB-/	16gg\L	.
.	16ee\JJ	.
!!LO:LB:g=original
=18	=18	=18
8FF/L	8ff\L	.
!LO:TX:t=P:problem:bemole po repetycji	!LO:TX:t=P:problem:bemole po repetycji	!
8F/ 8C/ 8AA/ 8FF/	8fff\ 8aa\ 8ff;\	.
!	!LO:TX:t=P:problem:nad repetycją fermata	!
!	!LO:TX:b:t=fin	!
8F/J 8FF/	8fff\J 8aa\ 8ff\	.
*	*8va	*
*>B	*	*
=:||;	=:||	=:||
*k[b-e-]	*k[b-e-]	*
8r	16ddd\LL 16bb-\	.
.	16ddd\JJ 16bb-\	.
=19	=19	=19
!LO:TX:t=P:problem:mixed beam	!	!
8BB-/L	8ddd\L 8bb-\	.
8d\J 8B-\ 8F\	8ccc\ 8aa\	.
*rep	*	*
!LO:TX:t=P:problem:mixed beam	!	!
8BB-/L	8bb-\ 8gg\	.
8d\J 8B-\ 8F\	8aa\J 8ff\	.
*Xrep	*	*
=20	=20	=20
!LO:TX:t=P:problem:mixed beam	!	!
8BB-/L	8gg/L 8ee-/	.
8d\J 8B-\ 8F\	8ff/J 8dd/	.
*rep	*	*
!LO:TX:t=P:problem:mixed beam	!	!
8BB-/L	8ff/L 8dd/	.
8d\J 8B-\ 8F\	16aa/L 16ff/	.
.	16gg/JJ 16ee-/	.
*Xrep	*	*
=21	=21	=21
!LO:TX:t=P:problem:mixed beam	!	!
8FF/L	8ff/L 8dd/	.
8e-\J 8A\ 8F\	8ee-/J 8cc/	.
*rep	*	*
!LO:TX:t=P:problem:mixed beam	!	!
8FF/L	8ee-/L 8cc/	.
8e-\J 8A\ 8F\	16gg/L 16ee-/	.
.	16ff/JJ 16dd/	.
*Xrep	*	*
=22	=22	=22
!LO:TX:t=P:problem:mixed beam	!	!
8BB-/L	8dd/L 8b-/	.
8d\J 8B-\ 8F\	8ee-/ 8cc/	.
*rep	*	*
!LO:TX:t=P:problem:mixed beam	!	!
8BB-/L	8ff/J 8dd/	.
8d\J 8B-\ 8F\	16ddd\LL 16bb-\	.
.	16ddd\JJ 16bb-\	.
*Xrep	*	*
=23	=23	=23
!LO:TX:t=P:problem:mixed beam	!	!
8BB-/L	8ddd\L 8bb-\	.
8d\J 8B-\ 8F\	8ccc\ 8aa\	.
*rep	*	*
!LO:TX:t=P:problem:mixed beam	!	!
8BB-/L	8bb-\ 8gg\	.
8d\J 8B-\ 8F\	8aa\J 8ff\	.
*Xrep	*	*
=24	=24	=24
8E-\L	8gg/L 8ee-/	.
8d\ 8D\	8aa/J 8ff#X/	.
8G\	8bb-/L 8gg/	.
8e-\J 8B-X\ 8E-\	16aa/L 16ffn/	.
.	16gg/JJ 16ee-/	.
=25	=25	=25
!LO:TX:t=P:problem:mixed beam	!	!
8FF/L	8ff/L 8dd/	.
8d\J 8B-\ 8F\	16dd/L	.
.	16gg/JJ	.
*	*X8va	*
!LO:TX:t=P:problem:mixed beam	!LO:TX:a:t=loco.	!
8FF/L	16ff\LL	.
.	16ee-\	.
8e-\J 8c\ 8F\	16cc\	.
.	16b-\JJ	.
=26	=26	=26
!LO:TX:t=P:problem:mixed beam	!	!
8d\L 8B-\	8b-\L	.
8BB-/J 8BBB-/	8bb-\J 8b-\	.
4BB-/ 4BBB-/	4bb-\ 4b-\	.
==;	==;	==
*-	*-	*-
!!!system-decoration: [s1,s2]
!!!EED: Leszek Kubiak
!!!EST: 2021-04-20
!!!AIN: 2 forte
!!!ENC: Kamil Watkowski
!!!END: 2021-04-01
